X:13754
T:Quadrils(2). TLY.071
M:2/4
L:1/16
Q:110
S:Wm.Tildesley,Swinton,Lancs.1860s.
R:Quadrille
O:England.
A:Lancashire.
H:1860.
Z:Taz Tarry.
K:C
ce| gece g2a2|  gece g2a2| g2g2f2e2| d^cde d2ce|  gece g2a2|!
  gece g2a2| gege fdfd | c2c2c2:|
|:Bc| dBGB d2d2| ecGc e2e2|!
 f2gf e2fe| dcde d2Bc| dBGB d2d2| ecGc e2e2| f2
gf e2fe| d2d2d2:|]
